X:174
T:A onde va la mio morena
C:Tradicional
S:Msica Tradicional Asturiana, (C) Tello & Tito. Asturies, 2001.
S:http://pagina.de/MusTradAst <telloytito@asturies.org>
A:Asturies
Z:Asturias, canciones
M:2/4
L:1/8
Q:1/4=100
K:C
|GG GA|G2 ED|C2 C2|AA AA|
G2 FE|D2 D2|DE FG|A3 G|
c2 B2|GA GE|F2 (ED)|C2 C2||
